X:1
T:Title
%%score { ( 1 3 ) | 2 }
L:1/8
M:4/4
K:Ab
V:1 treble nm="Grand Piano"
V:3 treble 
V:2 bass 
V:1
 z4 z2[Q:1/4=100] [A,C][B,D] | [CE]2 [Ec][Ec] [DB]2 [CA][A,C] | [_CF]2[K:bass] z2 z4[K:treble] | %3
 [DG]2 [DF][DE] F2 ED | C6 C[B,D] | [CE]2 [Ec]c c2 BG | B2 A4 A2 | %7
 B2 c[A,EA] [B,EG]2 [A,=DF][A,DF] |[M:3/4] [G,E]6 |[M:1/4] [Ge][Fd] | %10
[M:4/4] [Ec]2 [DB][CA] [Ec]2 [DB][CA] | [Fd]4 [Ec]2 [EB]2 | [EA]2 [EG][EA] B2 AF | [CE]6 [CE][CE] | %14
 [A,DF]2 [A,EG][A,FA] [A,E]2 [A,EA][A,EA] | [C_Ge]4 [Fd]2 cB | A2 AA A2 GG |[M:3/4] [CA]6 |] %18
V:2
 z4 z2 [A,,E,][A,,E,] | [A,,A,]2 [A,,A,][A,,A,] [A,,E,]2 [A,,E,][A,,E,] | %2
 .[A,,=D,]2 [A,,A,]4 [A,,A,]2 | [B,,E,]2 [B,,E,][B,,G,] [E,G,D]2 [E,A,C][E,B,] | %4
 [A,,E,A,]6 [A,,E,A,][A,,E,] | [A,,A,]2 [A,,A,][A,E] [G,C=E]2 [G,CE][G,CE] | %6
 [F,CG]2 [F,CF]4 [F,CF]2 | [G,B,E]2 [A,E]_C, B,,2 B,,B,, |[M:3/4] E,6 |[M:1/4] [E,B,][E,G,] | %10
[M:4/4] [A,,A,]2 [A,,E,][A,,E,] [A,,A,]2 [A,,E,][A,,E,] | [A,,A,]4 [A,,A,]2 [B,,G,]2 | %12
 [C,A,]2 [C,A,][C,A,] [D,F,D]2 [D,F,D][D,A,D] | [A,,A,]6 [A,,A,][A,,A,] | D,2 D,D, C,2 C,C, | %15
 =A,,4 [B,,B,]2 [C,=A,][D,B,] | [E,CE]2 [E,CE][E,_C=D] [E,B,_D]2 [E,B,D][E,D] |[M:3/4] [A,,E,]6 |] %18
V:3
 x8 | x8 | z[K:bass] F, [=CE]4[K:treble] [CE]2 | x8 | x8 | x8 | x8 | x8 |[M:3/4] x6 |[M:1/4] x2 | %10
[M:4/4] x8 | x8 | x8 | x8 | x8 | z4 z2 F2 | x8 |[M:3/4] x6 |] %18

